svg/icons/src/icon-concierge.svg

<?xml version="1.0" encoding="UTF-8"?>
<svg width="32px" height="32px" viewBox="0 0 32 32" version="1.1" xmlns="http://www.w3.org/2000/svg" xmlns:xlink="http://www.w3.org/1999/xlink">
    <!-- Generator: Sketch 52.5 (67469) - http://www.bohemiancoding.com/sketch -->
    <title>icon-concierge</title>
    <desc>Created with Sketch.</desc>
    <g id="icon-concierge" stroke="none" stroke-width="1" fill="none" fill-rule="evenodd">
        <path d="M30.25,18.81375 C30.2506958,16.4308063 28.7475345,14.3068394 26.5,13.515 L26.5,12.56375 C26.4999999,6.35054663 21.4632034,1.31375017 15.25,1.31375017 C9.03679663,1.31375017 4.00000009,6.35054663 4,12.56375 L4,13.515 C1.75006446,14.3081764 0.245187156,16.4343473 0.245187156,18.82 C0.245187156,21.2056527 1.75006446,23.3318236 4,24.125 C4.57508443,24.3283282 5.21313272,24.2392066 5.71049257,23.8860811 C6.20785242,23.5329556 6.50235465,22.9599663 6.5,22.35 L6.5,12.56375 C6.49999995,9.43767606 8.16774052,6.54906459 10.875,4.98602761 C13.5822594,3.42299062 16.9177406,3.42299062 19.625,4.98602761 C22.3322595,6.54906459 24,9.43767606 24,12.56375 L24,22.35 C24.0054276,22.875892 24.2323488,23.3751187 24.625,23.725 L24.625,24.435 C24.625,26.2775 23.01125,26.935 21.5,26.935 L19.2775,26.935 C18.7117429,25.95508 17.5583477,25.477328 16.4653889,25.7701854 C15.3724301,26.0630429 14.6124365,27.0534858 14.6124365,28.185 C14.6124365,29.3165142 15.3724301,30.3069571 16.4653889,30.5998146 C17.5583477,30.892672 18.7117429,30.41492 19.2775,29.435 L21.5,29.435 C24.81125,29.435 27.125,27.37875 27.125,24.435 L27.125,23.8375 C29.0343297,22.8902169 30.2442514,20.9451468 30.25,18.81375 Z" id="Path" fill="#2333FF"></path>
    </g>
</svg>

<svg width="32" height="32" xmlns="http://www.w3.org/2000/svg"><path d="M30.25 18.814a5.616 5.616 0 0 0-3.75-5.299v-.951c0-6.213-5.037-11.25-11.25-11.25S4 6.35 4 12.564v.951a5.625 5.625 0 0 0 0 10.61 1.875 1.875 0 0 0 2.5-1.775v-9.786a8.75 8.75 0 1 1 17.5 0v9.786c.005.526.232 1.025.625 1.375v.71c0 1.843-1.614 2.5-3.125 2.5h-2.223a2.5 2.5 0 1 0 0 2.5H21.5c3.311 0 5.625-2.056 5.625-5v-.598a5.625 5.625 0 0 0 3.125-5.023z" fill="#2333FF" fill-rule="evenodd"/></svg>
